X: 20
T: the Rose Tree
O: Trad
Z: 1999 John Chambers <jc:trillian.mit.edu>
M: C|
L: 1/4
K: D
|: f/e/ || "D"dB AF | A>B AA | dd ed/e/ | "A7"fe e/g/f/e/ \
|| "D"dB AF | A>B AA | dd "A7"ed/e/ | "D"fd d :|
|: e || "D"fe fg | a2 gf | "Em"eb b>a | be "A7"e/g/f/e/ \
|| "D"dB A F | A>B AA | dd "A7"ed/e/ | "D"fd d :|

%%sep 2 1 500

